icons/triangle-alert.svg

<svg width="24" height="24" viewBox="0 0 24 24" fill="none" xmlns="http://www.w3.org/2000/svg">
<path fill-rule="evenodd" clip-rule="evenodd" d="M12 3C12.3613 3 12.6945 3.19486 12.8716 3.50974L21.8716 19.5097C22.0457 19.8194 22.0426 20.1982 21.8632 20.5048C21.6839 20.8115 21.3553 21 21 21H3C2.64474 21 2.31614 20.8115 2.13679 20.5048C1.95744 20.1982 1.95425 19.8194 2.12842 19.5097L11.1284 3.50974C11.3055 3.19486 11.6387 3 12 3ZM4.70985 19H19.2902L12 6.03973L4.70985 19ZM12 9C12.5523 9 13 9.44772 13 10V13C13 13.5523 12.5523 14 12 14C11.4477 14 11 13.5523 11 13V10C11 9.44772 11.4477 9 12 9ZM11 17C11 16.4477 11.4477 16 12 16H12.0095C12.5617 16 13.0095 16.4477 13.0095 17C13.0095 17.5523 12.5617 18 12.0095 18H12C11.4477 18 11 17.5523 11 17Z" fill="black"/>
</svg>

<svg
  width="24"
  height="24"
  viewBox="0 0 24 24"
  xmlns="http://www.w3.org/2000/svg"
>
  <path
    fill-rule="evenodd"
    clip-rule="evenodd"
    d="M12 3a1 1 0 0 1 .872.51l9 16A1 1 0 0 1 21 21H3a1 1 0 0 1-.872-1.49l9-16A1 1 0 0 1 12 3zM4.71 19h14.58L12 6.04 4.71 19zM12 9a1 1 0 0 1 1 1v3a1 1 0 1 1-2 0v-3a1 1 0 0 1 1-1zm-1 8a1 1 0 0 1 1-1h.01a1 1 0 0 1 0 2H12a1 1 0 0 1-1-1z"
  />
</svg>
